public/merger.svg

<svg width="282.06" height="69.066" xmlns="http://www.w3.org/2000/svg"><path d="M68.78 48.45H58.045V17.48a20.933 20.933 0 0 0-.133-2.439q-.272-2.315-1.102-3.878-1.235-2.328-4.275-2.328-1.805 0-3.657.998a10.259 10.259 0 0 0-2.289 1.698 12.998 12.998 0 0 0-1.084 1.199 14.402 14.402 0 0 0-1.677 2.672 18.197 18.197 0 0 0-.793 1.888 16.288 16.288 0 0 0-.848 3.832 20.195 20.195 0 0 0-.102 2.058v25.27H31.35V17.48a20.933 20.933 0 0 0-.133-2.439q-.272-2.315-1.102-3.878-1.235-2.328-4.275-2.328a6.96 6.96 0 0 0-2.823.615 8.801 8.801 0 0 0-.93.478 9.823 9.823 0 0 0-2.116 1.702 12.949 12.949 0 0 0-1.209 1.48 15.269 15.269 0 0 0-1.403 2.475 20.752 20.752 0 0 0-.972 2.608 20.836 20.836 0 0 0-.747 3.751 27.051 27.051 0 0 0-.155 2.946v23.56H4.655V24.51q0-4.248-.422-7.467a32.673 32.673 0 0 0-.338-2.08q-.511-2.585-1.064-4.506A27.914 27.914 0 0 0 2.28 8.74a26.524 26.524 0 0 0-.81-1.919q-.437-.923-.902-1.687A13.136 13.136 0 0 0 0 4.275L8.55.855a14.851 14.851 0 0 1 .891 1.084q.441.589.883 1.281a24.961 24.961 0 0 1 .126.2q.76 1.33 1.52 3.278a22.333 22.333 0 0 1 .746 2.286 29.499 29.499 0 0 1 .489 2.131 20.715 20.715 0 0 1 2.153-3.967 14.427 14.427 0 0 1 4.545-4.25Q24.225.38 29.07.38q3.739 0 6.205 1.471a8.31 8.31 0 0 1 1.347.999q2.708 2.47 4.038 6.365a18.716 18.716 0 0 1 2.476-3.582 13.937 13.937 0 0 1 4.127-3.21Q51.3.38 55.765.38a19.177 19.177 0 0 1 2.713.181q1.42.204 2.612.634a10.367 10.367 0 0 1 .898.373q2.517 1.187 3.99 3.325 1.472 2.137 2.137 5.13.665 2.992.665 6.697v31.73Zm93.48 16.625 2.66-8.265q1.425.57 3.04 1.188a59.078 59.078 0 0 0 2.529.899 67.622 67.622 0 0 0 .891.288q1.805.57 3.658.95 1.852.38 3.657.38 3.624 0 5.881-1.477a7.088 7.088 0 0 0 1.814-1.705q2.28-3.056 2.371-7.819a20.884 20.884 0 0 0 .004-.399 25.003 25.003 0 0 0-1.276-7.777 29.811 29.811 0 0 0-.814-2.198 17.346 17.346 0 0 1-1.692 3.674 12.896 12.896 0 0 1-3.39 3.689 12.411 12.411 0 0 1-4.168 1.926q-1.678.443-3.652.554a24.046 24.046 0 0 1-1.348.037 20.175 20.175 0 0 1-3.803-.341 14.843 14.843 0 0 1-3.939-1.321q-3.278-1.663-5.463-4.75-2.185-3.088-3.23-7.458a37.321 37.321 0 0 1-.845-5.217 48.217 48.217 0 0 1-.2-4.473 30.94 30.94 0 0 1 .716-6.759 26.84 26.84 0 0 1 .947-3.263 24.894 24.894 0 0 1 2.834-5.613 22 22 0 0 1 1.821-2.32q2.992-3.325 7.172-5.225a21.399 21.399 0 0 1 7.357-1.833A25.488 25.488 0 0 1 177.65.38a41.708 41.708 0 0 1 2.941.109 51.588 51.588 0 0 1 1.951.176q2.613.285 5.131.713a123.275 123.275 0 0 1 3.326.61 104.049 104.049 0 0 1 1.423.292q2.233.475 3.848.855l-.475 26.125q-.095 2.85.333 5.225.427 2.375.997 4.703.57 2.327 1.045 4.702a23.983 23.983 0 0 1 .384 2.822 30.661 30.661 0 0 1 .091 2.403q0 6.733-2.294 11.173a14.548 14.548 0 0 1-2.836 3.837q-5.13 4.94-13.87 4.94-2.85 0-5.7-.522a68.318 68.318 0 0 1-3.234-.671 55.109 55.109 0 0 1-2.038-.517q-2.423-.665-4.133-1.33-1.475-.574-2.102-.864a6.844 6.844 0 0 1-.178-.086ZM113.335 38l2.85 6.745a39.301 39.301 0 0 1-3.919 1.692 44.695 44.695 0 0 1-1.401.493 37.939 37.939 0 0 1-2.483.76q-1.501.407-3.217.76a32.865 32.865 0 0 1-5.279.633 37.883 37.883 0 0 1-1.561.032 30.584 30.584 0 0 1-4.21-.274q-2.252-.314-4.156-.985a17.258 17.258 0 0 1-1.039-.403q-3.895-1.663-6.365-4.703a18.331 18.331 0 0 1-2.864-5.008 22.596 22.596 0 0 1-.746-2.307 33.048 33.048 0 0 1-.922-5.11 42.575 42.575 0 0 1-.218-4.39 39.136 39.136 0 0 1 .38-5.589 28.32 28.32 0 0 1 1.378-5.621 25.626 25.626 0 0 1 2.32-4.83 20.911 20.911 0 0 1 2.524-3.292q3.088-3.278 7.268-4.94Q95.855 0 100.7 0a29.186 29.186 0 0 1 3.203.166q2.264.251 4.065.879a15.786 15.786 0 0 1 2.565 1.147 11.746 11.746 0 0 1 2.327 1.703q1.9 1.805 2.803 4.275a15.075 15.075 0 0 1 .88 4.439 17.462 17.462 0 0 1 .022.881 12.173 12.173 0 0 1-1.776 6.302 14.524 14.524 0 0 1-.124.206 16.022 16.022 0 0 1-3.117 3.644 20.816 20.816 0 0 1-2.346 1.771 26.175 26.175 0 0 1-4.2 2.205 35.742 35.742 0 0 1-4.397 1.5Q95.57 30.495 89.3 30.59q.285 2.185.903 4.133a10.716 10.716 0 0 0 1.214 2.604 9.717 9.717 0 0 0 .591.816 7.976 7.976 0 0 0 2.4 1.985 9.641 9.641 0 0 0 .687.342 8.89 8.89 0 0 0 1.844.585q.896.186 1.933.244a17.397 17.397 0 0 0 .973.026 20.93 20.93 0 0 0 2.653-.176 26.168 26.168 0 0 0 1.812-.299 39.72 39.72 0 0 0 2.686-.631 32.117 32.117 0 0 0 1.684-.509q2.375-.76 4.655-1.71Zm127.585 0 2.85 6.745a39.301 39.301 0 0 1-3.919 1.692 44.695 44.695 0 0 1-1.401.493 37.939 37.939 0 0 1-2.483.76q-1.501.407-3.217.76a32.865 32.865 0 0 1-5.279.633 37.883 37.883 0 0 1-1.561.032 30.584 30.584 0 0 1-4.21-.274q-2.252-.314-4.156-.985a17.258 17.258 0 0 1-1.039-.403q-3.895-1.663-6.365-4.703a18.331 18.331 0 0 1-2.864-5.008 22.596 22.596 0 0 1-.746-2.307 33.048 33.048 0 0 1-.922-5.11 42.575 42.575 0 0 1-.218-4.39 39.136 39.136 0 0 1 .38-5.589 28.32 28.32 0 0 1 1.378-5.621 25.626 25.626 0 0 1 2.32-4.83 20.911 20.911 0 0 1 2.524-3.292q3.088-3.278 7.268-4.94Q223.44 0 228.285 0a29.186 29.186 0 0 1 3.203.166q2.264.251 4.065.879a15.786 15.786 0 0 1 2.565 1.147 11.746 11.746 0 0 1 2.327 1.703q1.9 1.805 2.803 4.275a15.075 15.075 0 0 1 .88 4.439 17.462 17.462 0 0 1 .022.881 12.173 12.173 0 0 1-1.776 6.302 14.524 14.524 0 0 1-.124.206 16.022 16.022 0 0 1-3.117 3.644 20.816 20.816 0 0 1-2.346 1.771 26.175 26.175 0 0 1-4.2 2.205 35.742 35.742 0 0 1-4.397 1.5q-5.035 1.377-11.305 1.472.285 2.185.903 4.133a10.716 10.716 0 0 0 1.214 2.604 9.717 9.717 0 0 0 .591.816 7.976 7.976 0 0 0 2.4 1.985 9.641 9.641 0 0 0 .687.342 8.89 8.89 0 0 0 1.844.585q.896.186 1.933.244a17.397 17.397 0 0 0 .973.026 20.93 20.93 0 0 0 2.653-.176 26.168 26.168 0 0 0 1.812-.299 39.72 39.72 0 0 0 2.686-.631 32.117 32.117 0 0 0 1.684-.509q2.375-.76 4.655-1.71ZM137.275 22.42v26.03h-10.83V24.51q0-4.248-.422-7.467a32.673 32.673 0 0 0-.338-2.08q-.511-2.585-1.064-4.506a27.914 27.914 0 0 0-.551-1.717 26.524 26.524 0 0 0-.81-1.919q-.437-.923-.902-1.687a13.136 13.136 0 0 0-.568-.859l8.55-3.42q.855 1.045 1.805 2.565a23.952 23.952 0 0 1 .713 1.351q.302.619.605 1.313a39.794 39.794 0 0 1 .202.471 17.64 17.64 0 0 1 .65 1.838q.281.949.504 2.032a30.289 30.289 0 0 1 .081.405 21.092 21.092 0 0 1 1.508-3.423q1.059-1.893 2.427-3.227a11.173 11.173 0 0 1 1.575-1.282q3.61-2.423 8.17-2.423a16.17 16.17 0 0 1 2.807.236 13.92 13.92 0 0 1 1.278.287 254.054 254.054 0 0 1 .424.117q1.445.4 1.383.405a.023.023 0 0 1-.002 0l-3.04 10.545a.012.012 0 0 0 .006-.001q.031-.02-.828-.402a71.827 71.827 0 0 0-.27-.119 4.831 4.831 0 0 0-.859-.276q-.909-.209-2.222-.241a19.949 19.949 0 0 0-.482-.006 7.279 7.279 0 0 0-2.618.501 8.938 8.938 0 0 0-.802.354q-1.71.855-3.04 2.328a11.357 11.357 0 0 0-1.603 2.314 13.998 13.998 0 0 0-.582 1.248 11.47 11.47 0 0 0-.772 3.098 14.161 14.161 0 0 0-.083 1.557Zm127.585 0v26.03h-10.83V24.51q0-4.248-.422-7.467a32.673 32.673 0 0 0-.338-2.08q-.511-2.585-1.064-4.506a27.914 27.914 0 0 0-.551-1.717 26.524 26.524 0 0 0-.81-1.919q-.437-.923-.902-1.687a13.136 13.136 0 0 0-.568-.859l8.55-3.42q.855 1.045 1.805 2.565a23.952 23.952 0 0 1 .713 1.351q.302.619.605 1.313a39.794 39.794 0 0 1 .202.471 17.64 17.64 0 0 1 .65 1.838q.281.949.504 2.032a30.289 30.289 0 0 1 .081.405 21.092 21.092 0 0 1 1.508-3.423q1.059-1.893 2.427-3.227a11.173 11.173 0 0 1 1.575-1.282q3.61-2.423 8.17-2.423a16.17 16.17 0 0 1 2.807.236 13.92 13.92 0 0 1 1.278.287 254.054 254.054 0 0 1 .424.117q1.445.4 1.383.405a.023.023 0 0 1-.002 0l-3.04 10.545a.012.012 0 0 0 .006-.001q.031-.02-.828-.402a71.827 71.827 0 0 0-.27-.119 4.831 4.831 0 0 0-.859-.276q-.909-.209-2.222-.241a19.949 19.949 0 0 0-.482-.006 7.279 7.279 0 0 0-2.618.501 8.938 8.938 0 0 0-.802.354q-1.71.855-3.04 2.328a11.357 11.357 0 0 0-1.603 2.314 13.998 13.998 0 0 0-.582 1.248 11.47 11.47 0 0 0-.772 3.098 14.161 14.161 0 0 0-.083 1.557Zm-79.705 1.045V9.025a15.081 15.081 0 0 0-.534-.148q-.613-.159-1.478-.344a67.433 67.433 0 0 0-.838-.173 21.597 21.597 0 0 0-1.59-.26q-.975-.12-1.83-.12a17.359 17.359 0 0 0-2.478.167q-1.302.188-2.383.588a8.854 8.854 0 0 0-1.077.48q-2.327 1.235-3.752 3.42-1.425 2.185-1.995 5.225a32.891 32.891 0 0 0-.476 3.811 41.536 41.536 0 0 0-.094 2.839 105.573 105.573 0 0 0 .107 4.827 92.51 92.51 0 0 0 .083 1.538q.19 3.04.998 5.415.807 2.375 2.327 3.753a5.14 5.14 0 0 0 2.308 1.183q.79.188 1.717.194a9.483 9.483 0 0 0 .06 0 6.622 6.622 0 0 0 3.844-1.237 8.37 8.37 0 0 0 .383-.283q1.948-1.52 3.468-4.037a20.554 20.554 0 0 0 1.742-3.705 25.116 25.116 0 0 0 .633-2.043q.855-3.23.855-6.65ZM99.845 7.41a10.981 10.981 0 0 0-2.283.225q-1.65.35-2.894 1.248-2.043 1.472-3.278 3.8a16.994 16.994 0 0 0-1.407 3.64 20.343 20.343 0 0 0-.35 1.585q-.523 2.897-.618 5.842a40.732 40.732 0 0 0 3.226-.256q1.659-.202 3.085-.54a20.874 20.874 0 0 0 1.431-.391 22.961 22.961 0 0 0 2.369-.88q1.162-.511 2.105-1.109a12.126 12.126 0 0 0 .704-.481 12.249 12.249 0 0 0 1.441-1.236q.748-.757 1.242-1.569a7.135 7.135 0 0 0 .215-.378 8.019 8.019 0 0 0 .704-1.817 6.654 6.654 0 0 0 .198-1.603q0-2.755-1.615-4.417a5.399 5.399 0 0 0-3.218-1.592 7.573 7.573 0 0 0-1.057-.071Zm127.585 0a10.981 10.981 0 0 0-2.283.225q-1.65.35-2.894 1.248-2.043 1.472-3.278 3.8a16.994 16.994 0 0 0-1.407 3.64 20.343 20.343 0 0 0-.35 1.585q-.523 2.897-.618 5.842a40.732 40.732 0 0 0 3.226-.256q1.659-.202 3.085-.54a20.874 20.874 0 0 0 1.431-.391 22.961 22.961 0 0 0 2.369-.88q1.162-.511 2.105-1.109a12.126 12.126 0 0 0 .704-.481 12.249 12.249 0 0 0 1.441-1.236q.748-.757 1.242-1.569a7.135 7.135 0 0 0 .215-.378 8.019 8.019 0 0 0 .704-1.817 6.654 6.654 0 0 0 .198-1.603q0-2.755-1.615-4.417a5.399 5.399 0 0 0-3.218-1.592 7.573 7.573 0 0 0-1.057-.071Z" vector-effect="non-scaling-stroke" stroke-linecap="round" fill-rule="evenodd" font-size="12" stroke="#000" stroke-width=".945" style="stroke:#000;stroke-width:.25mm;fill:#000"/></svg>

<svg width="282.06" height="69.066" viewBox="0 0 282.06 69.066" xmlns="http://www.w3.org/2000/svg"><g id="svgGroup" stroke-linecap="round" fill-rule="evenodd" font-size="9pt" stroke="#000" stroke-width="0.25mm" fill="#000" style="stroke:#000;stroke-width:0.25mm;fill:#000"><path d="M 68.78 48.45 L 58.045 48.45 L 58.045 17.48 A 20.933 20.933 0 0 0 57.912 15.041 Q 57.64 12.726 56.81 11.163 Q 55.575 8.835 52.535 8.835 Q 50.73 8.835 48.878 9.833 A 10.259 10.259 0 0 0 46.589 11.531 A 12.998 12.998 0 0 0 45.505 12.73 A 14.402 14.402 0 0 0 43.828 15.402 A 18.197 18.197 0 0 0 43.035 17.29 A 16.288 16.288 0 0 0 42.187 21.122 A 20.195 20.195 0 0 0 42.085 23.18 L 42.085 48.45 L 31.35 48.45 L 31.35 17.48 A 20.933 20.933 0 0 0 31.217 15.041 Q 30.945 12.726 30.115 11.163 Q 28.88 8.835 25.84 8.835 A 6.96 6.96 0 0 0 23.017 9.45 A 8.801 8.801 0 0 0 22.087 9.928 A 9.823 9.823 0 0 0 19.971 11.63 A 12.949 12.949 0 0 0 18.762 13.11 A 15.269 15.269 0 0 0 17.359 15.585 A 20.752 20.752 0 0 0 16.387 18.193 A 20.836 20.836 0 0 0 15.64 21.944 A 27.051 27.051 0 0 0 15.485 24.89 L 15.485 48.45 L 4.655 48.45 L 4.655 24.51 Q 4.655 20.262 4.233 17.043 A 32.673 32.673 0 0 0 3.895 14.963 Q 3.384 12.378 2.831 10.457 A 27.914 27.914 0 0 0 2.28 8.74 A 26.524 26.524 0 0 0 1.47 6.821 Q 1.033 5.898 0.568 5.134 A 13.136 13.136 0 0 0 0 4.275 L 8.55 0.855 A 14.851 14.851 0 0 1 9.441 1.939 Q 9.882 2.528 10.324 3.22 A 24.961 24.961 0 0 1 10.45 3.42 Q 11.21 4.75 11.97 6.698 A 22.333 22.333 0 0 1 12.716 8.984 A 29.499 29.499 0 0 1 13.205 11.115 A 20.715 20.715 0 0 1 15.358 7.148 A 14.427 14.427 0 0 1 19.903 2.898 Q 24.225 0.38 29.07 0.38 Q 32.809 0.38 35.275 1.851 A 8.31 8.31 0 0 1 36.622 2.85 Q 39.33 5.32 40.66 9.215 A 18.716 18.716 0 0 1 43.136 5.633 A 13.937 13.937 0 0 1 47.263 2.423 Q 51.3 0.38 55.765 0.38 A 19.177 19.177 0 0 1 58.478 0.561 Q 59.898 0.765 61.09 1.195 A 10.367 10.367 0 0 1 61.988 1.568 Q 64.505 2.755 65.978 4.893 Q 67.45 7.03 68.115 10.023 Q 68.78 13.015 68.78 16.72 L 68.78 48.45 Z M 162.26 65.075 L 164.92 56.81 Q 166.345 57.38 167.96 57.998 A 59.078 59.078 0 0 0 170.489 58.897 A 67.622 67.622 0 0 0 171.38 59.185 Q 173.185 59.755 175.038 60.135 Q 176.89 60.515 178.695 60.515 Q 182.319 60.515 184.576 59.038 A 7.088 7.088 0 0 0 186.39 57.333 Q 188.67 54.277 188.761 49.514 A 20.884 20.884 0 0 0 188.765 49.115 A 25.003 25.003 0 0 0 187.489 41.338 A 29.811 29.811 0 0 0 186.675 39.14 A 17.346 17.346 0 0 1 184.983 42.814 A 12.896 12.896 0 0 1 181.593 46.503 A 12.411 12.411 0 0 1 177.425 48.429 Q 175.747 48.872 173.773 48.983 A 24.046 24.046 0 0 1 172.425 49.02 A 20.175 20.175 0 0 1 168.622 48.679 A 14.843 14.843 0 0 1 164.683 47.358 Q 161.405 45.695 159.22 42.608 Q 157.035 39.52 155.99 35.15 A 37.321 37.321 0 0 1 155.145 29.933 A 48.217 48.217 0 0 1 154.945 25.46 A 30.94 30.94 0 0 1 155.661 18.701 A 26.84 26.84 0 0 1 156.608 15.438 A 24.894 24.894 0 0 1 159.442 9.825 A 22 22 0 0 1 161.263 7.505 Q 164.255 4.18 168.435 2.28 A 21.399 21.399 0 0 1 175.792 0.447 A 25.488 25.488 0 0 1 177.65 0.38 A 41.708 41.708 0 0 1 180.591 0.489 A 51.588 51.588 0 0 1 182.542 0.665 Q 185.155 0.95 187.673 1.378 A 123.275 123.275 0 0 1 190.999 1.988 A 104.049 104.049 0 0 1 192.422 2.28 Q 194.655 2.755 196.27 3.135 L 195.795 29.26 Q 195.7 32.11 196.128 34.485 Q 196.555 36.86 197.125 39.188 Q 197.695 41.515 198.17 43.89 A 23.983 23.983 0 0 1 198.554 46.712 A 30.661 30.661 0 0 1 198.645 49.115 Q 198.645 55.848 196.351 60.288 A 14.548 14.548 0 0 1 193.515 64.125 Q 188.385 69.065 179.645 69.065 Q 176.795 69.065 173.945 68.543 A 68.318 68.318 0 0 1 170.711 67.872 A 55.109 55.109 0 0 1 168.673 67.355 Q 166.25 66.69 164.54 66.025 Q 163.065 65.451 162.438 65.161 A 6.844 6.844 0 0 1 162.26 65.075 Z M 113.335 38 L 116.185 44.745 A 39.301 39.301 0 0 1 112.266 46.437 A 44.695 44.695 0 0 1 110.865 46.93 A 37.939 37.939 0 0 1 108.382 47.69 Q 106.881 48.097 105.165 48.45 A 32.865 32.865 0 0 1 99.886 49.083 A 37.883 37.883 0 0 1 98.325 49.115 A 30.584 30.584 0 0 1 94.115 48.841 Q 91.863 48.527 89.959 47.856 A 17.258 17.258 0 0 1 88.92 47.453 Q 85.025 45.79 82.555 42.75 A 18.331 18.331 0 0 1 79.691 37.742 A 22.596 22.596 0 0 1 78.945 35.435 A 33.048 33.048 0 0 1 78.023 30.325 A 42.575 42.575 0 0 1 77.805 25.935 A 39.136 39.136 0 0 1 78.185 20.346 A 28.32 28.32 0 0 1 79.563 14.725 A 25.626 25.626 0 0 1 81.883 9.895 A 20.911 20.911 0 0 1 84.407 6.603 Q 87.495 3.325 91.675 1.663 Q 95.855 0 100.7 0 A 29.186 29.186 0 0 1 103.903 0.166 Q 106.167 0.417 107.968 1.045 A 15.786 15.786 0 0 1 110.533 2.192 A 11.746 11.746 0 0 1 112.86 3.895 Q 114.76 5.7 115.663 8.17 A 15.075 15.075 0 0 1 116.543 12.609 A 17.462 17.462 0 0 1 116.565 13.49 A 12.173 12.173 0 0 1 114.789 19.792 A 14.524 14.524 0 0 1 114.665 19.998 A 16.022 16.022 0 0 1 111.548 23.642 A 20.816 20.816 0 0 1 109.202 25.413 A 26.175 26.175 0 0 1 105.002 27.618 A 35.742 35.742 0 0 1 100.605 29.118 Q 95.57 30.495 89.3 30.59 Q 89.585 32.775 90.203 34.723 A 10.716 10.716 0 0 0 91.417 37.327 A 9.717 9.717 0 0 0 92.008 38.143 A 7.976 7.976 0 0 0 94.408 40.128 A 9.641 9.641 0 0 0 95.095 40.47 A 8.89 8.89 0 0 0 96.939 41.055 Q 97.835 41.241 98.872 41.299 A 17.397 17.397 0 0 0 99.845 41.325 A 20.93 20.93 0 0 0 102.498 41.149 A 26.168 26.168 0 0 0 104.31 40.85 A 39.72 39.72 0 0 0 106.996 40.219 A 32.117 32.117 0 0 0 108.68 39.71 Q 111.055 38.95 113.335 38 Z M 240.92 38 L 243.77 44.745 A 39.301 39.301 0 0 1 239.851 46.437 A 44.695 44.695 0 0 1 238.45 46.93 A 37.939 37.939 0 0 1 235.967 47.69 Q 234.466 48.097 232.75 48.45 A 32.865 32.865 0 0 1 227.471 49.083 A 37.883 37.883 0 0 1 225.91 49.115 A 30.584 30.584 0 0 1 221.7 48.841 Q 219.448 48.527 217.544 47.856 A 17.258 17.258 0 0 1 216.505 47.453 Q 212.61 45.79 210.14 42.75 A 18.331 18.331 0 0 1 207.276 37.742 A 22.596 22.596 0 0 1 206.53 35.435 A 33.048 33.048 0 0 1 205.608 30.325 A 42.575 42.575 0 0 1 205.39 25.935 A 39.136 39.136 0 0 1 205.77 20.346 A 28.32 28.32 0 0 1 207.148 14.725 A 25.626 25.626 0 0 1 209.468 9.895 A 20.911 20.911 0 0 1 211.992 6.603 Q 215.08 3.325 219.26 1.663 Q 223.44 0 228.285 0 A 29.186 29.186 0 0 1 231.488 0.166 Q 233.752 0.417 235.553 1.045 A 15.786 15.786 0 0 1 238.118 2.192 A 11.746 11.746 0 0 1 240.445 3.895 Q 242.345 5.7 243.248 8.17 A 15.075 15.075 0 0 1 244.128 12.609 A 17.462 17.462 0 0 1 244.15 13.49 A 12.173 12.173 0 0 1 242.374 19.792 A 14.524 14.524 0 0 1 242.25 19.998 A 16.022 16.022 0 0 1 239.133 23.642 A 20.816 20.816 0 0 1 236.787 25.413 A 26.175 26.175 0 0 1 232.587 27.618 A 35.742 35.742 0 0 1 228.19 29.118 Q 223.155 30.495 216.885 30.59 Q 217.17 32.775 217.788 34.723 A 10.716 10.716 0 0 0 219.002 37.327 A 9.717 9.717 0 0 0 219.593 38.143 A 7.976 7.976 0 0 0 221.993 40.128 A 9.641 9.641 0 0 0 222.68 40.47 A 8.89 8.89 0 0 0 224.524 41.055 Q 225.42 41.241 226.457 41.299 A 17.397 17.397 0 0 0 227.43 41.325 A 20.93 20.93 0 0 0 230.083 41.149 A 26.168 26.168 0 0 0 231.895 40.85 A 39.72 39.72 0 0 0 234.581 40.219 A 32.117 32.117 0 0 0 236.265 39.71 Q 238.64 38.95 240.92 38 Z M 137.275 22.42 L 137.275 48.45 L 126.445 48.45 L 126.445 24.51 Q 126.445 20.262 126.023 17.043 A 32.673 32.673 0 0 0 125.685 14.963 Q 125.174 12.378 124.621 10.457 A 27.914 27.914 0 0 0 124.07 8.74 A 26.524 26.524 0 0 0 123.26 6.821 Q 122.823 5.898 122.358 5.134 A 13.136 13.136 0 0 0 121.79 4.275 L 130.34 0.855 Q 131.195 1.9 132.145 3.42 A 23.952 23.952 0 0 1 132.858 4.771 Q 133.16 5.39 133.463 6.084 A 39.794 39.794 0 0 1 133.665 6.555 A 17.64 17.64 0 0 1 134.315 8.393 Q 134.596 9.342 134.819 10.425 A 30.289 30.289 0 0 1 134.9 10.83 A 21.092 21.092 0 0 1 136.408 7.407 Q 137.467 5.514 138.835 4.18 A 11.173 11.173 0 0 1 140.41 2.898 Q 144.02 0.475 148.58 0.475 A 16.17 16.17 0 0 1 151.387 0.711 A 13.92 13.92 0 0 1 152.665 0.998 A 254.054 254.054 0 0 1 153.089 1.115 Q 154.534 1.515 154.472 1.52 A 0.023 0.023 0 0 1 154.47 1.52 L 151.43 12.065 A 0.012 0.012 0 0 0 151.436 12.064 Q 151.467 12.044 150.608 11.662 A 71.827 71.827 0 0 0 150.338 11.543 A 4.831 4.831 0 0 0 149.479 11.267 Q 148.57 11.058 147.257 11.026 A 19.949 19.949 0 0 0 146.775 11.02 A 7.279 7.279 0 0 0 144.157 11.521 A 8.938 8.938 0 0 0 143.355 11.875 Q 141.645 12.73 140.315 14.203 A 11.357 11.357 0 0 0 138.712 16.517 A 13.998 13.998 0 0 0 138.13 17.765 A 11.47 11.47 0 0 0 137.358 20.863 A 14.161 14.161 0 0 0 137.275 22.42 Z M 264.86 22.42 L 264.86 48.45 L 254.03 48.45 L 254.03 24.51 Q 254.03 20.262 253.608 17.043 A 32.673 32.673 0 0 0 253.27 14.963 Q 252.759 12.378 252.206 10.457 A 27.914 27.914 0 0 0 251.655 8.74 A 26.524 26.524 0 0 0 250.845 6.821 Q 250.408 5.898 249.943 5.134 A 13.136 13.136 0 0 0 249.375 4.275 L 257.925 0.855 Q 258.78 1.9 259.73 3.42 A 23.952 23.952 0 0 1 260.443 4.771 Q 260.745 5.39 261.048 6.084 A 39.794 39.794 0 0 1 261.25 6.555 A 17.64 17.64 0 0 1 261.9 8.393 Q 262.181 9.342 262.404 10.425 A 30.289 30.289 0 0 1 262.485 10.83 A 21.092 21.092 0 0 1 263.993 7.407 Q 265.052 5.514 266.42 4.18 A 11.173 11.173 0 0 1 267.995 2.898 Q 271.605 0.475 276.165 0.475 A 16.17 16.17 0 0 1 278.972 0.711 A 13.92 13.92 0 0 1 280.25 0.998 A 254.054 254.054 0 0 1 280.674 1.115 Q 282.119 1.515 282.057 1.52 A 0.023 0.023 0 0 1 282.055 1.52 L 279.015 12.065 A 0.012 0.012 0 0 0 279.021 12.064 Q 279.052 12.044 278.193 11.662 A 71.827 71.827 0 0 0 277.923 11.543 A 4.831 4.831 0 0 0 277.064 11.267 Q 276.155 11.058 274.842 11.026 A 19.949 19.949 0 0 0 274.36 11.02 A 7.279 7.279 0 0 0 271.742 11.521 A 8.938 8.938 0 0 0 270.94 11.875 Q 269.23 12.73 267.9 14.203 A 11.357 11.357 0 0 0 266.297 16.517 A 13.998 13.998 0 0 0 265.715 17.765 A 11.47 11.47 0 0 0 264.943 20.863 A 14.161 14.161 0 0 0 264.86 22.42 Z M 185.155 23.465 L 185.155 9.025 A 15.081 15.081 0 0 0 184.621 8.877 Q 184.008 8.718 183.143 8.533 A 67.433 67.433 0 0 0 182.305 8.36 A 21.597 21.597 0 0 0 180.715 8.1 Q 179.74 7.98 178.885 7.98 A 17.359 17.359 0 0 0 176.407 8.147 Q 175.105 8.335 174.024 8.735 A 8.854 8.854 0 0 0 172.947 9.215 Q 170.62 10.45 169.195 12.635 Q 167.77 14.82 167.2 17.86 A 32.891 32.891 0 0 0 166.724 21.671 A 41.536 41.536 0 0 0 166.63 24.51 A 105.573 105.573 0 0 0 166.737 29.337 A 92.51 92.51 0 0 0 166.82 30.875 Q 167.01 33.915 167.818 36.29 Q 168.625 38.665 170.145 40.043 A 5.14 5.14 0 0 0 172.453 41.226 Q 173.243 41.414 174.17 41.42 A 9.483 9.483 0 0 0 174.23 41.42 A 6.622 6.622 0 0 0 178.074 40.183 A 8.37 8.37 0 0 0 178.457 39.9 Q 180.405 38.38 181.925 35.863 A 20.554 20.554 0 0 0 183.667 32.158 A 25.116 25.116 0 0 0 184.3 30.115 Q 185.155 26.885 185.155 23.465 Z M 99.845 7.41 A 10.981 10.981 0 0 0 97.562 7.635 Q 95.912 7.985 94.668 8.883 Q 92.625 10.355 91.39 12.683 A 16.994 16.994 0 0 0 89.983 16.323 A 20.343 20.343 0 0 0 89.633 17.908 Q 89.11 20.805 89.015 23.75 A 40.732 40.732 0 0 0 92.241 23.494 Q 93.9 23.292 95.326 22.954 A 20.874 20.874 0 0 0 96.757 22.563 A 22.961 22.961 0 0 0 99.126 21.683 Q 100.288 21.172 101.231 20.574 A 12.126 12.126 0 0 0 101.935 20.093 A 12.249 12.249 0 0 0 103.376 18.857 Q 104.124 18.1 104.618 17.288 A 7.135 7.135 0 0 0 104.833 16.91 A 8.019 8.019 0 0 0 105.537 15.093 A 6.654 6.654 0 0 0 105.735 13.49 Q 105.735 10.735 104.12 9.073 A 5.399 5.399 0 0 0 100.902 7.481 A 7.573 7.573 0 0 0 99.845 7.41 Z M 227.43 7.41 A 10.981 10.981 0 0 0 225.147 7.635 Q 223.497 7.985 222.253 8.883 Q 220.21 10.355 218.975 12.683 A 16.994 16.994 0 0 0 217.568 16.323 A 20.343 20.343 0 0 0 217.218 17.908 Q 216.695 20.805 216.6 23.75 A 40.732 40.732 0 0 0 219.826 23.494 Q 221.485 23.292 222.911 22.954 A 20.874 20.874 0 0 0 224.342 22.563 A 22.961 22.961 0 0 0 226.711 21.683 Q 227.873 21.172 228.816 20.574 A 12.126 12.126 0 0 0 229.52 20.093 A 12.249 12.249 0 0 0 230.961 18.857 Q 231.709 18.1 232.203 17.288 A 7.135 7.135 0 0 0 232.418 16.91 A 8.019 8.019 0 0 0 233.122 15.093 A 6.654 6.654 0 0 0 233.32 13.49 Q 233.32 10.735 231.705 9.073 A 5.399 5.399 0 0 0 228.487 7.481 A 7.573 7.573 0 0 0 227.43 7.41 Z" vector-effect="non-scaling-stroke"/></g></svg>
